X:58
T:Trail of the Lonesome Pine
M:4/4
R:Singing Square
Z:SG
K:G
B^A|"G"B2D2DEDB,|"A"^C A3-A2 ^GA|"D"B2 AF D2 A2|"G"G6 B^A|
"G"B2 DD- "(E7)"D E2 D|"A"^C2 BA-A3 ^G| "Em"A2EF "A7"G2E2| "D" F2G2A2^A2|
"G"B4-B A2 G|"Em"ABGA- A B2 G|"Cm"A4-"D7"A G2E|"G"GA^AB "D7"BB2A|
"G"G2D2 "(G#)"DEDB,|"A"^C A3-A2 ^GA|"D7"B2AF D2 A2| "G"G6|]
